T: Seven Hops
M: 3/4
L: 1/8
K: Gmaj
|:G FE|D3 F Ad|f3 d AF|G3 B dg|b4 _b2|       a3 g ec|1 A3 c eg|f3 d AF|D3:|               2 A3 g ec|f3 e dc|d3|||:F Ad|f3 A fA|g2 f2 e2|d2 G3 B|A4 a2|       a3 g ec|A3 c eg|1 f3 d AF|D3:|               2 A3 g ec|f3 e dc|d3|||:d ^c=c|B3 _B =B2|B2 (3ABA G2|F3 D Fd|c3 D FA|         d3 D dD|(3cdc B2 A2|1 G3 D Ge|d3:|                             2 G3 F GA|G3||~A2|D3 F (3ABd|~f3 d AF|~G3 A .B.d|({a}b6)|   a3 g ec|A2 (3Bcd e2|({e}~f3 e dB|FA ~A2 ~A2|   D3 F (3ABd|~f3 d AF|~G3 A Bd|b4 _b2|   a3 g ec|A2 (3Bcd e2|~f3 e dc|d4||(3ABd|~f3 A fA|({f}g2) (3fgf (3efe|d2 ~G3 B|A4 a2|      ~a3 g ec|A2 (3Bcd e2|f ~f2 e dB|FA ~A2 ~A2|      ef ~f2 ~f2|g2 (3fgf (3efe|d2 G3 B|A4 a2|      a3 g ec|A2 (3Bcd e2|f ~f2 e dc|d4||(3d^c=c|({A}~B3) _B ~=B2|cB cA BG|({D}~F3) D Fd|c3 D (3FGA|        dD cD BD|AD FA DF|G3 D Ge|d4 ^c=c|        B3 D Gc|(3BcB (3ABA (3GAG|F2 FD Fd|c3 D (3FGA|        d3 D (3Bcd|c2 B2 A2|G3 F GA|G4||
